X:1
T:Priory, 66.84 D
T:Priory, 66.84 D
T:Anonymous
T:Public Domain Courtesy of the Cyber Hymnal™
C:Anonymous
Z:Public Domain
Z:Courtesy of the Cyber Hymnal™
%%score ( 1 2 ) ( 3 4 )
L:1/8
Q:1/4=112
M:4/4
K:Ab
V:1 treble 
V:2 treble 
V:3 bass 
V:4 bass 
V:1
 [CE]2 | [CA]2 [CE]2 [Ec]3 [DB] | [CA]6 [CA]2 | [DB]2 [DB]2 [DG]3 [DG] | [CA]6 [Ec]2 | %5
 [EB]2 [EB]2 [Ge]2 [Gd]2 | [Ec]2 [Ed]2 [Ec]2 [GB]2 | [FA]4 [=EG]4 | F6 [CE]2 | %9
 [CE]2 [CE]2 [EA]3 [EG] | [DF]6 [DF]2 | [Fd]3 [Ec] [DB]2 [FA]2 | (A4 G2) E2 | %13
 [Ee]2 [Ed]2 [Ec]2 [DB]2 | [CA]2 E2 [DF]2 [Fd]2 | [Ec]4 [DB]4 | [CA]6 |] %17
V:2
 x2 | x8 | x8 | x8 | x8 | x8 | x8 | x8 | F6 x2 | x8 | x8 | x8 | E6 E2 | x8 | x2 E2 x4 | x8 | x6 |] %17
V:3
 [A,,A,]2 | [A,,A,]2 [A,,A,]2 [E,A,]3 [E,G,] | [A,,A,]6 [A,,A,]2 | [D,F,]2 [D,F,]2 [E,B,]3 [E,B,] | %4
 [A,,A,]6 A,2 | [E,G,]2 [E,G,]2 [E,B,]2 [E,B,]2 | [E,A,]2 [E,G,]2 [A,,A,]2 [B,,D]2 | %7
 [C,C]4 [C,B,]4 | [F,A,]6 [A,,A,]2 | [A,,A,]2 [A,,A,]2 [C,A,]3 [C,A,] | [D,A,]6 [D,A,]2 | %11
 [B,,B,]3 [C,=A,] [D,B,]2 [=D,=B,]2 | (C4 B,2) [D,G,]2 | [C,A,]2 [B,,G,]2 [A,,A,]2 [E,G,]2 | %14
 [F,A,]2 [C,A,]2 [D,A,]2 [B,,A,]2 | [E,A,]4 [E,G,]4 | [A,,A,]6 |] %17
V:4
 x2 | x8 | x8 | x8 | x6 A,2 | x8 | x8 | x8 | x8 | x8 | x8 | x8 | E,6 x2 | x8 | x8 | x8 | x6 |] %17

